files/2/256x256/places/user-desktop.svg

<svg width="256" xmlns="http://www.w3.org/2000/svg" height="256" viewBox="0 0 256 256" xmlns:xlink="http://www.w3.org/1999/xlink">
<g style="stroke:#e9a439">
<path style="fill:#e9a439" d="M 4.34668 24.5 C 3.887207 24.453125 3.5 23.991699 3.5 23.498047 L 3.5 4.506836 C 3.5 3.97998 3.945801 3.5 4.4375 3.5 L 27.5625 3.5 C 28.054199 3.5 28.5 3.97998 28.5 4.506836 L 28.5 20.741699 C 28.5 21.268555 27.781738 22.025391 27.290527 22.025391 L 18.825195 22.010254 L 18.825195 23.334473 C 18.825195 23.856934 18.414062 24.5 17.925293 24.5 L 4.4375 24.5 C 4.408203 24.5 4.378906 24.5 4.34668 24.5 Z " transform="matrix(8 0 0 8 0 8)"/>
<path style="fill:#f5c14e" d="M 1.549805 5.5 C 0.980469 5.546875 0.5 6.008301 0.5 6.501953 L 0.5 25.493164 C 0.5 26.02002 1.053223 26.5 1.662598 26.5 L 30.337402 26.5 C 30.946777 26.5 31.5 26.02002 31.5 25.493164 L 31.5 9.258301 C 31.5 8.731445 30.609375 7.974609 30 7.974609 L 19.503418 7.989746 L 19.503418 6.665527 C 19.503418 6.143066 18.993164 5.5 18.387695 5.5 L 1.662598 5.5 C 1.626465 5.5 1.589844 5.5 1.549805 5.5 Z " transform="matrix(8 0 0 8 0 8)"/>
</g>
<g style="fill:#e9a439">
<path style="fill-rule:evenodd" d="M 85.34375 112 L 85.34375 122.65625 L 90.65625 122.65625 L 90.65625 114.65625 C 90.65625 111.96875 93.34375 111.96875 93.34375 111.96875 L 101.34375 112 L 101.34375 106.65625 L 90.65625 106.65625 C 90.65625 106.65625 85.34375 106.65625 85.34375 112 Z M 154.65625 106.65625 L 154.65625 112 L 162.65625 112 C 162.65625 112 165.34375 111.96875 165.34375 114.65625 L 165.34375 122.65625 L 170.65625 122.65625 L 170.65625 112 C 170.65625 106.65625 165.34375 106.65625 165.34375 106.65625 Z M 85.34375 165.34375 L 85.34375 176 C 85.34375 181.34375 90.65625 181.34375 90.65625 181.34375 L 101.34375 181.34375 L 101.34375 176 L 93.34375 176.03125 C 90.65625 176 90.65625 173.375 90.65625 173.375 L 90.65625 165.34375 Z M 165.34375 165.34375 L 165.34375 173.34375 C 165.34375 175.96875 162.65625 176 162.65625 176 L 154.65625 176 L 154.65625 181.34375 L 165.34375 181.34375 C 165.34375 181.34375 170.65625 181.34375 170.65625 176 L 170.65625 165.34375 Z "/>
<path d="M 101.34375 127.96875 L 101.34375 149.3125 C 101.34375 154.625 106.65625 154.625 106.65625 154.625 L 122.65625 154.625 C 128 154.625 128 149.3125 128 149.3125 L 128 133.3125 L 117.34375 122.625 L 106.65625 122.625 C 106.65625 122.625 101.34375 122.625 101.34375 127.96875 Z M 106.65625 127.96875 L 117.34375 127.96875 L 117.34375 133.3125 L 122.65625 133.3125 L 122.65625 149.3125 L 106.65625 149.3125 Z "/>
</g>
</svg>

<?xml version="1.0" encoding="UTF-8" standalone="no"?>
<svg
   xmlns:dc="http://purl.org/dc/elements/1.1/"
   xmlns:cc="http://creativecommons.org/ns#"
   xmlns:rdf="http://www.w3.org/1999/02/22-rdf-syntax-ns#"
   xmlns:svg="http://www.w3.org/2000/svg"
   xmlns="http://www.w3.org/2000/svg"
   xmlns:sodipodi="http://sodipodi.sourceforge.net/DTD/sodipodi-0.dtd"
   xmlns:inkscape="http://www.inkscape.org/namespaces/inkscape"
   width="256"
   height="256"
   viewBox="0 0 256 256"
   id="svg2"
   version="1.1"
   inkscape:version="0.48.5 r10040"
   sodipodi:docname="user-desktop.svg">
  <metadata
     id="metadata20">
    <rdf:RDF>
      <cc:Work
         rdf:about="">
        <dc:format>image/svg+xml</dc:format>
        <dc:type
           rdf:resource="http://purl.org/dc/dcmitype/StillImage" />
      </cc:Work>
    </rdf:RDF>
  </metadata>
  <defs
     id="defs18" />
  <sodipodi:namedview
     pagecolor="#ffffff"
     bordercolor="#666666"
     borderopacity="1"
     objecttolerance="10"
     gridtolerance="10"
     guidetolerance="10"
     inkscape:pageopacity="0"
     inkscape:pageshadow="2"
     inkscape:window-width="1280"
     inkscape:window-height="969"
     id="namedview16"
     showgrid="false"
     inkscape:zoom="0.921875"
     inkscape:cx="-50.983051"
     inkscape:cy="125.83051"
     inkscape:window-x="0"
     inkscape:window-y="0"
     inkscape:window-maximized="1"
     inkscape:current-layer="svg2" />
  <path
     style="fill:#e9b080;fill-opacity:1;stroke:none"
     d="m 36.000002,30.000001 c -5.85566,0 -12,6 -12,12 l 0,4 -12.000002,0 c -5.8804,0 -12,5.98132 -12,12 L 0,214 c 0,8 4,12 12,12 l 232,0 c 6.27046,0 12,-5.43338 12,-12 l 0,-135.999999 c 0,-6.01972 -5.82016,-12 -12,-12 l -12,0 0,-24 C 232,36.155381 226.18712,30 220,30 z"
     id="path6-6"
     inkscape:connector-curvature="0"
     sodipodi:nodetypes="ssccssssscccsss" />
  <path
     inkscape:connector-curvature="0"
     id="path12"
     d="m 85.34375,112 0,10.65625 5.3125,0 0,-8 c 0,-2.6875 2.6875,-2.6875 2.6875,-2.6875 l 8,0.0312 0,-5.34375 -10.6875,0 c 0,0 -5.3125,0 -5.3125,5.34375 z m 69.3125,-5.34375 0,5.34375 8,0 c 0,0 2.6875,-0.0312 2.6875,2.65625 l 0,8 5.3125,0 0,-10.65625 c 0,-5.34375 -5.3125,-5.34375 -5.3125,-5.34375 z m -69.3125,58.6875 0,10.65625 c 0,5.34375 5.3125,5.34375 5.3125,5.34375 l 10.6875,0 0,-5.34375 -8,0.0312 C 90.65625,176 90.65625,173.375 90.65625,173.375 l 0,-8.03125 z m 80,0 0,8 c 0,2.625 -2.6875,2.65625 -2.6875,2.65625 l -8,0 0,5.34375 10.6875,0 c 0,0 5.3125,0 5.3125,-5.34375 l 0,-10.65625 z"
     style="fill:#000000;fill-rule:evenodd;fill-opacity:0.32156864" />
  <path
     style="fill:#000000;fill-opacity:0.32156864"
     inkscape:connector-curvature="0"
     id="path14"
     d="m 101.34375,127.96875 0,21.34375 c 0,5.3125 5.3125,5.3125 5.3125,5.3125 l 16,0 C 128,154.625 128,149.3125 128,149.3125 l 0,-16 -10.65625,-10.6875 -10.6875,0 c 0,0 -5.3125,0 -5.3125,5.34375 z m 5.3125,0 10.6875,0 0,5.34375 5.3125,0 0,16 -16,0 z" />
  <path
     sodipodi:nodetypes="sscsssssssscsssssscssssssss"
     inkscape:connector-curvature="0"
     style="fill:#000000;fill-opacity:0.32156863;stroke:none"
     d="m 36.000002,30.000001 c -5.85566,0 -12,6 -12,12 l 0,4 -12.000002,0 c -5.8804,0 -12,5.98132 -12,12 L 0,214 c 0,8 4,12 12,12 l 232,0 c 6.27046,0 12,-5.43338 12,-12 l 0,-135.999999 c 0,-6.01972 -5.82016,-12 -12,-12 l -12,0 0,-24 c 0,-5.84462 -5.81288,-12 -12,-12 z m -24.000002,24 136,0 c 2.3607,0 4,2.05908 4,4 l 0,16 92,0 c 2.0222,0 4,2.03496 4,4 L 248,214 c 0,2.08516 -1.91506,4 -4,4 l -232,0 c -1.85718,0 -4,-1.58538 -4,-4 L 8,58.000001 c 0,-1.96962 2.06612,-4 4,-4 z"
     id="path3778" />
</svg>
